packages/calcite-ui-icons/icons/dimensions-centered-32.svg

<?xml version="1.0" encoding="UTF-8"?><svg id="icons" xmlns="http://www.w3.org/2000/svg" viewBox="0 0 32 32"><defs><style>.cls-1{fill:none;}</style></defs><rect class="cls-1" width="32" height="32"/><path d="M30,7v1h-1v-1h1ZM29,10h1v-1h-1v1ZM29,12h1v-1h-1v1ZM29,22h1v-1h-1v1ZM2,22h1v-1h-1v1ZM29,24h1v-1h-1v1ZM2,24h1v-1h-1v1ZM29,26h1v-1h-1v1ZM2,26h1v-1h-1v1ZM2,12h1v-1h-1v1ZM2,10h1v-1h-1v1ZM2,8h1v-1h-1v1ZM24,16H8v-3l-4,3.5,4,3.5v-3h16v3l4-3.5-4-3.5v3ZM2,20h1v-7h-1v7ZM29,20h1v-7h-1v7Z"/></svg>

<svg xmlns="http://www.w3.org/2000/svg" viewBox="0 0 32 32"><path d="M0 0h32v32H0z" style="fill:none"/><path d="M30 7v1h-1V7zm-1 3h1V9h-1zm0 2h1v-1h-1zm0 10h1v-1h-1zM2 22h1v-1H2zm27 2h1v-1h-1zM2 24h1v-1H2zm27 2h1v-1h-1zM2 26h1v-1H2zm0-14h1v-1H2zm0-2h1V9H2zm0-2h1V7H2zm22 8H8v-3l-4 3.5L8 20v-3h16v3l4-3.5-4-3.5zM2 20h1v-7H2zm27 0h1v-7h-1z"/></svg>
